incomeartour/img/icons/bag.svg

<svg width="27" height="24" viewBox="0 0 27 24" fill="none" xmlns="http://www.w3.org/2000/svg">
<path d="M16.6508 19.7427C16.6508 20.0434 16.4069 20.2873 16.1063 20.2873H11.7744C11.4737 20.2873 11.2298 20.0434 11.2298 19.7427V18.8027H0.96875V21.299C0.96875 22.7357 2.13763 23.9043 3.57402 23.9043H24.3063C25.743 23.9043 26.9116 22.7354 26.9116 21.299V18.8027H16.6508V19.7427Z" fill="black"/>
<path d="M24.3066 5.80124H19.5642V3.81111C19.5642 2.21272 18.2636 0.912109 16.6649 0.912109H11.2154C9.61704 0.912109 8.31642 2.21272 8.31642 3.81111V5.80124H3.57402C2.13763 5.80124 0.96875 6.96983 0.96875 8.4065V17.2352H11.2298V16.6645C11.2298 16.3638 11.4737 16.12 11.7744 16.12H16.1063C16.4069 16.12 16.6508 16.3638 16.6508 16.6645V17.2352H26.9119V8.4065C26.9119 6.96983 25.743 5.80124 24.3066 5.80124ZM17.5686 5.80124H10.312V3.81111C10.312 3.313 10.7173 2.90771 11.2154 2.90771H16.6649C17.163 2.90771 17.5686 3.313 17.5686 3.81111V5.80124Z" fill="black"/>
</svg>

<svg width="27" height="24" fill="none" xmlns="http://www.w3.org/2000/svg"><path d="M16.65 19.743c0 .3-.243.544-.544.544h-4.332a.545.545 0 01-.544-.544v-.94H.969v2.496a2.608 2.608 0 002.605 2.605h20.732a2.608 2.608 0 002.606-2.605v-2.496H16.65v.94zm7.657-13.942h-4.743v-1.99c0-1.598-1.3-2.899-2.9-2.899h-5.449a2.902 2.902 0 00-2.899 2.9v1.99H3.574A2.608 2.608 0 00.969 8.405v8.83h10.26v-.572c0-.3.245-.544.545-.544h4.332c.3 0 .545.244.545.544v.571h10.26V8.406a2.608 2.608 0 00-2.604-2.605zm-6.738 0h-7.257v-1.99c0-.498.405-.903.903-.903h5.45c.498 0 .904.405.904.903v1.99z" fill="#000"/></svg>
